!!!COM: Grieg, Edvard
!!!CDT: 1843/06/15/-1907/09/04/
!!!OPR: Peer Gynt Suite No. 1 (piano transcription)
!!!OPS: Op. 46
!!!ONM: No. 1
!!!OTL@@NO: Morgenstemning
!!!OTL@EN: Morning Mood
!!!OTL@DE: Morgenstimmung
!!!OMD: Alletretto pastorale
**kern	**kern	**dynam
*staff2	*staff1	*staff1
*Ipiano	*Ipiano	*Ipiano
*clefF4	*clefG2	*clefG2
*k[f#c#g#d#]	*k[f#c#g#d#]	*k[f#c#g#d#]
*E:	*E:	*E:
*M6/8	*M6/8	*M6/8
*MM90	*MM90	*MM90
=1-	=1-	=1-
2.E\ 2.B\ 2.g#\	(8bb\L	p
.	8gg#\	.
.	8ff#\J	.
.	8ee\L	.
.	8ff#\	.
.	8gg#\J)	.
=2	=2	=2
2.E\ 2.B\ 2.g#\	(8bb\L	.
.	gg#q/LL	.
.	aaq/JJ	.
.	8gg#\	.
.	8ff#\J	.
.	8ee\L	.
.	16ff#\L	.
.	16gg#\	.
.	16ff#\	.
.	16gg#\JJ)	.
=3	=3	=3
.	gg#q/LL	.
.	aaq/JJ	.
*	*^	*
4.E\ 4.B\ 4.g#\	(8bb\L	4.r	<
.	8gg#\	.	.
.	8bb\J	.	.
4.C#^\ 4.G#^\ 4.e^\	4.cc#\	8ccc#/L	.
.	.	8gg#/	>
.	.	8ccc#/J	.
=4	=4	=4	=4
*^	*	*	*
4.E\ 4.B\ [4.g#\	4.r	8bb/L	[4.b\	.
.	.	8gg#/	.	.
.	.	8ff#/J	.	.
(8B\L	4g#/]	4ee/)	&(4b\]&)	.
8G#\	.	.	.	.
8F#\J)	8r	8r	8r	.
*v	*v	*	*	*
=5	=5	=5	=5
2.EE/ 2.BB/ 2.E/	(8b/L	2.G#\ 2.e\	.
.	8g#/	.	.
.	8f#/J	.	.
.	8e/L	.	.
.	8f#/	.	.
.	8g#/J)	.	.
=6	=6	=6	=6
2.EE/ 2.BB/ 2.E/	(8b/L	2.G#\ 2.e\	.
.	g#q/LL	.	.
.	aq/JJ	.	.
.	&(8g#/&)	.	.
.	8f#/J	.	.
.	8e/L	.	.
.	16f#/L	.	.
.	16g#/	.	.
.	16f#/	.	.
.	16g#/JJ)	.	.
*	*v	*v	*
=7	=7	=7
.	(g#q/LL	.
.	aq/JJ	.
*	*^	*
4.EE/ 4.BB/ 4.G#/	(8b/L)	4.e\	<
.	8g#/	.	.
.	8b/J	.	.
4.C#\ 4.G#\ 4.c#\	8cc#/L	4.e\	.
.	8g#/	.	.
.	8cc#/J	.	.
=8	=8	=8	=8
4.GG#\ 4.D#\ 4.B#\	8dd#/L	[4.d#\	>
.	8b#/	.	.
.	8a#/J	.	.
(8d#\L	4g#/)	4d#\]	.
8B#\	.	.	.
8A#\J)	8r	8r	.
*	*v	*v	*
=9	=9	=9
2.G#\ 2.d#\ 2.b#\	(8ddd#\L	.
.	8bb#\	.
.	8aa#\J	.
.	8gg#\L	.
.	8aa#\	.
.	8bb#\J)	.
=10	=10	=10
2.G#\ 2.d#\ 2.b#\	(8ddd#\L	.
.	bb#q/LL	.
.	ccc#q/JJ	.
.	8bb#\	.
.	8aa#\J	.
.	8gg#\L	.
.	16aa#\L	.
.	16bb#\	.
.	16aa#\	.
.	16bb#\JJ)	.
=11	=11	=11
*	*^	*
.	4.r	bb#q/LL	.
*	*v	*v	*
.	ccc#q/JJ	.
4.G#\ 4.d#\ 4.b#\	(8ddd#\L	<
*	*^	*
.	.	8bb#\	.
.	.	8ddd#\J	.
4.E\ 4.B#\ 4.g#\	8eee/L	4.ee\	>
.	8bb#/	.	.
.	8eee/J	.	.
=12	=12	=12	=12
*^	*	*	*
4.G#\ 4.d#\ [4.b#\	4.r	8ddd#/L	[4.dd#\	.
.	.	8bb#/	.	.
.	.	8aa#/J	.	.
(8d#\L	4b#/]	4gg#/)	&(4dd#\]&)	.
8B#\	.	.	.	.
8A#\J)	8r	8r	8r	.
*v	*v	*	*	*
=13	=13	=13	=13
2.GG#/ 2.D#/ 2.G#/	(8dd#/L	2.B#\ 2.g#\	.
.	8b#/	.	.
.	8a#/J	.	.
.	8g#/L	.	.
.	8a#/	.	.
.	8b#/J)	.	.
=14	=14	=14	=14
2.GG#/ 2.D#/ 2.G#/	(8dd#/L	2.B#\ 2.g#\	.
.	b#q/LL	.	.
.	cc#q/JJ	.	.
.	8b#/	.	.
.	8a#/J	.	.
.	8g#/L	.	.
.	16a#/L	.	.
.	16b#/	.	.
.	16a#/	.	.
.	16b#/JJ)	.	.
*	*v	*v	*
=15	=15	=15
.	b#q/LL	.
.	cc#q/JJ	.
*	*^	*
4.GG#\ 4.D#\ 4.B#\	(8dd#/L	4.g#\	<
.	8b#/	.	.
.	8dd#/J	.	.
4.C#\ 4.G#\ 4.c#\	8ee/L	4.e\ 4.g#\	.
.	8cc#/	.	.
.	8ee/J	.	.
=16	=16	=16	=16
4.BBn\ 4.F#\ 4.d#\	8ff#/L	[4.f#\ 4.bn\	.
.	8dd#/	.	.
.	8cc#/J	.	.
(8f#\L	4b/)	4f#\]	.
8d#\	.	.	.
8c#\J)	8r	8r	.
*clefG2	*	*	*
=17	=17	=17	=17
2.B/ 2.f#/ 2.dd#/	(8fff#/L	2.ff#\	.
.	8ddd#/	.	.
.	8ccc#/J	.	.
.	8bb/L	.	.
.	16ccc#/L	.	.
.	16ddd#/	.	.
.	16ccc#/	.	.
.	16ddd#/JJ)	.	.
*clefF4	*	*	*
=18	=18	=18	=18
2.BB\ 2.F#\ 2.d#\	(8ff#/L	2.f#\ 2.b\	.
.	8dd#/	.	.
.	8cc#/J	.	.
.	8b/L	.	.
.	16cc#/L	.	.
.	16dd#/	.	.
.	16cc#/	.	.
.	16dd#/JJ)	.	.
*clefG2	*	*	*
=19	=19	=19	=19
4.B/ 4.f#/ 4.dd#/	(8fff#/L	4.ff#\	<
.	8ddd#/	.	.
.	8bb/J)	.	.
*clefF4	*	*	*
4.BB\ 4.F#\ 4.d#\	(8ff#/L	4.f#\ 4.b\	.
.	8dd#/	.	.
.	8b/J)	.	.
*clefG2	*	*	*
=20	=20	=20	=20
4.B/ 4.a/ 4.dd#/	(8ggg#/L	4.ff#\	.
.	8ddd#/	.	.
.	8bb/J)	.	.
*clefF4	*	*	*
4.BB\ 4.A\ 4.d#\	(8ff#/L	4.f#\ 4.b\	.
.	8dd#/	.	.
.	8b/J)	.	.
*	*v	*v	*
=21	=21	=21
2.EE/ 2.BB/ 2.G#/	8b\ 8ee\ (8bb\L	f
.	8g#\ 8gg#\	.
.	8f#\ 8ff#\J	.
.	8e\ 8ee\L	.
.	8f#\ 8ff#\	.
.	8g#\ 8gg#\J)	.
=22	=22	=22
2.EE/ 2.BB/ 2.G#/	8b\ 8ee\ (8bb\L	.
.	gg#q/LL	.
.	aaq/JJ	.
.	8g#\ 8gg#\	.
.	8f#\ 8ff#\J	.
.	8e\ 8ee\L	.
.	16f#\ 16ff#\L	.
.	16g#\ 16gg#\	.
.	16f#\ 16ff#\	.
.	16g#\ 16gg#\JJ)	.
=23	=23	=23
.	gg#q/LL	.
.	aaq/JJ	.
*	*^	*
4.EE/ 4.BB/ 4.G#/	(8bb/L	4.b\	.
.	8gg#/	.	.
.	8bb/J	.	.
4.EE/ 4.C#/ 4.G#/	(8ccc#/L)	4.cc#\ 4.ee\	.
.	8gg#/	.	.
.	8ccc#/J)	.	.
=24	=24	=24	=24
4.FF#/ 4.C#/ 4.A/	(8ccc#/L	[4.cc#\ [4.ee\	.
.	8aa/	.	.
.	8gg#/J	.	.
8C#\ (8c#\L	4ff#/	4cc#\] 4ee\])	.
8AA\ 8A\	.	.	.
8GG#\ 8G#\J)	8r	8r	.
*	*v	*v	*
=25	=25	=25
2.FF#/ 2.C#/ 2.E/ 2.A/	8cc#\ 8ee\ (8ccc#\L	.
.	8a\ 8aa\	.
.	8g#\ 8gg#\J	.
.	8f#\ 8ff#\L	.
.	8g#\ 8gg#\	.
.	8a\ 8aa\J)	.
=26	=26	=26
2.FF#/ 2.C#/ 2.E/ 2.A/	8cc#\ 8ee\ (8ccc#\L	.
.	aaq/LL	.
.	bbq/JJ	.
.	8a\ 8aa\	.
.	8g#\ 8gg#\J	.
.	8f#\ 8ff#\L	.
.	16g#\ 16gg#\L	.
.	16a\ 16aa\	.
.	16g#\ 16gg#\	.
.	16a\ 16aa\JJ)	.
=27	=27	=27
.	aaq/LL	.
.	bbq/JJ	.
*	*^	*
4.FF#/ 4.C#/ 4.E/ 4.A/	(8ccc#/L	4.ee\	.
.	8aa/	.	.
.	8ccc#/J)	.	.
4.FF#/ 4.D#/ 4.A/	(8ddd#/L	4.dd#\ 4.ff#\	f
.	8aa/	.	.
.	8ddd#/J)	.	.
*	*v	*v	*
=28	=28	=28
.	ddd#q/LL	.
.	eeeq/JJ	.
*	*^	*
4.GG#\ 4.D#\ 4.F#\ 4.B\	(8ddd#/L	4.ff#\	.
.	8bb/	.	.
.	8ddd#/J)	.	.
4.GG#\ 4.E\ 4.B\	(8eee/L	4.ee\ 4.gg#\	.
.	8bb/	.	.
.	8eee/J)	.	.
*	*v	*v	*
=29	=29	=29
.	eeeq/LL	.
.	fff#q/JJ	.
*	*^	*
4.AA\ 4.E\ 4.G#\ 4.c#\	(8eee/L	4.gg#\	.
.	8ccc#/	.	.
.	8eee/J)	.	.
4.AA\ 4.F#\ 4.c#\	(8fff#/L	4.ff#\ 4.aa\	.
.	8ccc#/	.	.
.	8fff#/J)	.	.
=30	=30	=30	=30
4.GG#\ 4.D#\ 4.B#\	16gg#\ (16ggg#\LL	4.r	ff
.	16ddd#\	.	.
.	16bb#\	.	.
.	16gg#\	.	.
.	16bb#\	.	.
.	16ddd#\JJ)	.	>
4.r	16gg#\LL	(16ddd#/LL	.
.	16dd#\JJ	16bb#/	.
.	8r	16gg#/	.
.	.	16dd#/	.
.	8r	16gg#/	.
.	.	16bb#/JJ)	.
=31	=31	=31	=31
2.r	(16bb#/LL	16dd#\LL	>
.	16gg#/	&(16b#\JJ&)	.
.	16dd#/	8r	.
.	16b#/	.	.
.	16dd#/	8r	.
.	16gg#/JJ)	.	.
.	(16gg#/LL	16b#\LL	.
.	16dd#/	&(16g#\JJ&)	.
.	16b#/	8r	.
.	16g#/	.	.
.	16b#/	8r	.
.	16dd#/JJ)	.	.
=32	=32	=32	=32
[2.A\ [2.c#\	8r	(4.g#\	p
.	8gg#/ 8ccc#/L	.	.
.	8cc#/J	.	.
.	8r	4.f#\	.
.	8ff#/ 8ccc#/L	.	.
.	&(8cc#/J&)	.	.
=33	=33	=33	=33
2.A\] 2.c#\]	8r	4.e\	<
.	8ee/ 8ccc#/L	.	.
.	&(8cc#/J&)	.	.
.	8r	4.f#\)	.
.	8ff#/ 8ccc#/L	.	.
.	8cc#/J	.	.
=34	=34	=34	=34
4.GG#\ 4.D#\ 4.B#\	16gg#^\ (16ggg#^\LL	4.r	ff
.	16ddd#\	.	>
.	16bb#\	.	.
.	16gg#\	.	.
.	16bb#\	.	.
.	16ddd#\JJ)	.	.
4.A\ 4.c#\	8r	4e\	p
*	*v	*v	*
*	*^	*
.	8ee/ (8ccc#/L	.	.
.	8cc#/J)	8f#\	.
=35	=35	=35	=35
4.GG#\ 4.D#\ 4.B#\	16gg#^\ (16ggg#^\LL	4.r	ff
*	*v	*v	*
*	*^	*
.	16ddd#\	.	.
.	16bb#\	.	.
.	16gg#\	.	.
.	16bb#\	.	.
.	16ddd#\JJ)	.	.
4.A\ 4.c#\	8r	4e\	p
*	*v	*v	*
*	*^	*
.	8ee/ (8ccc#/L	.	.
.	8cc#/J)	8f#\	.
*	*v	*v	*
=36	=36	=36
[2.GG#\ [2.D#\ [2.B#\	(16b#/LL	p
.	16g#/	.
.	16d#/	.
.	16g#/	.
.	16b#/	.
.	16dd#/JJ)	.
.	(16dd#\LL	.
.	16b#\	.
.	16g#\	.
.	16b#\	.
.	16dd#\	.
.	16gg#\JJ)	.
=37	=37	=37
*	*^	*
4.GG#\] 4.D#\] 4.B#\]	4.r	(16gg#\LL	<
.	.	16dd#\	.
.	.	16b#\	.
.	.	16dd#\	.
.	.	16gg#\	.
.	.	16bb#\JJ)	.
4.GGn\ 4.Cn\ 4.E\ 4.B-\	(16cccn/LL	4.ee\	.
.	16ggn/	.	.
.	16ee/	.	.
.	16gg/	.	.
.	16ccc/	.	.
.	16eee/JJ)	.	.
=38	=38	=38	=38
4.FFn/ 4.Cn/ 4.A/	4.r	16ffn\ (16fffn\LL	ff
.	.	16cccn\	.
.	.	16aa\	.
.	.	16ff\	.
.	.	16aa\	.
.	.	16ccc\JJ)	.
4.r	(16ccc/LL	16ffn\LL	.
.	16aa/	&(16ccn\JJ&)	.
.	16ff/	8r	.
.	16ccn/	.	.
.	16ff/	8r	.
.	16aa/JJ)	.	.
=39	=39	=39	=39
2.r	(16aa/LL	16ccn\LL	.
.	16ffn/	&(16a\JJ&)	.
.	16ccn/	8r	.
.	16a/	.	.
.	16cc/	8r	.
.	16ff/JJ)	.	.
.	(16ff/LL	16a\LL	.
.	16cc/	&(16fn\JJ&)	.
.	16a/	8r	.
.	16fn/	.	.
.	16a/	8r	.
.	16cc/JJ)	.	.
=40	=40	=40	=40
2.G-\ [2.B-\	8r	(4.fn\	p
.	8ffn/ 8bb-/L	.	.
.	8b-/J	.	.
.	8r	4.e-\	.
.	8ee-/ 8bb-/L	.	.
.	8b-/J	.	.
=41	=41	=41	=41
2.G-\ 2.B-\]	8r	4.d-\	<
.	8dd-/ 8bb-/L	.	.
.	&(8b-/J&)	.	.
.	8r	4.e-\)	.
.	8ee-/ (8bb-/L	.	.
.	8b-/J)	.	.
=42	=42	=42	=42
4.FFn/ 4.Cn/ 4.A/	16ffn^\ (16fffn^\LL	4.r	ff
*	*v	*v	*
*	*^	*
.	16cccn\	.	.
.	16aa\	.	.
.	16ff\	.	.
.	16aa\	.	.
.	16ccc\JJ)	.	.
4.G-\ 4.B-\	8r	4d-\	p
*	*v	*v	*
*	*^	*
.	8dd-/ (8bb-/L	.	.
.	8b-/J)	8e-\	.
=43	=43	=43	=43
4.FFn/ 4.Cn/ 4.A/	16ffn^\ (16fffn^\LL	4.r	ff
*	*v	*v	*
*	*^	*
.	16cccn\	.	.
.	16aa\	.	.
.	16ff\	.	.
.	16aa\	.	.
.	16ccc\JJ)	.	.
4.G-\ 4.B-\	8r	4d-\	p
*	*v	*v	*
*	*^	*
.	8dd-/ (8bb-/L	.	.
.	8b-/J)	8e-\	.
*	*v	*v	*
=44	=44	=44
[2.FFn/ [2.Cn/ [2.A/	(16a/LL	p
.	16fn/	.
.	16cn/	.
.	16f/	.
.	16a/	.
.	16ccn/JJ)	.
.	(16cc\LL	.
.	16a\	.
.	16f\	.
.	16a\	.
.	16cc\	.
.	16ffn\JJ)	.
=45	=45	=45
*	*^	*
4.FF/] 4.C/] 4.A/]	4.r	(16ffn\LL	<
.	.	16ccn\	.
.	.	16a\	.
.	.	16cc\	.
.	.	16ff\	.
.	.	16aa\JJ)	.
4.EE/ 4.AA/ 4.C#/ 4.Gn/	(16aa/LL	4.cc#\	.
.	16ee/	.	.
.	16cc#/	.	.
.	16ee/	.	.
.	16aa/	.	.
.	16ccc#/JJ)	.	.
=46	=46	=46	=46
4.DDn/ 4.AA/ 4.F#/	4.r	16ddn\ (16dddn\LL	ff
.	.	16aa\	.
.	.	16ff#\	.
.	.	16dd\	.
.	.	16ff#\	.
.	.	16aa\JJ)	.
4.r	(16ddd/LL	16ff#\LL	.
.	16aa/	&(16ddn\JJ&)	.
.	16ff#/	8r	.
.	16dd/	.	.
.	16ff#/	8r	.
.	16aa/JJ)	.	.
=47	=47	=47	=47
2.r	(16dddn/LL	16ff#\LL	>
.	16aa/	&(16ddn\JJ&)	.
.	16ff#/	8r	.
.	16ddn/	.	.
.	16ff#/	8r	.
.	16aa/JJ	.	.
.	16ddd/LL)	(16ff#\LL	.
.	16aa/	16dd\JJ)	.
.	16ff#/	8r	.
.	16dd/	.	.
.	16ff#/	8r	.
.	16aa/JJ	.	.
*clefG2	*v	*v	*
=48	=48	=48
2.dn^/ 2.f#^/ [2.a^/	16ff#\ (16dddn\LL	p
.	16aa\	.
.	16ff#\	.
.	16ddn\	.
.	16ff#\	.
.	16aa\JJ)	.
.	16ff#\ (16ddd\LL	.
.	16aa\	.
.	16ff#\	.
.	16dd\	.
.	16ff#\	.
.	16aa\JJ)	.
=49	=49	=49
2.d-/ 2.fn/ 2.a/]	16ffn\ (16ddd-\LL	.
.	16aa\	.
.	16ff\	.
.	16dd-\	.
.	16ff\	.
.	16aa\JJ)	.
.	16ff\ (16ddd-\LL	.
.	16aa\	.
.	16ff\	.
.	16dd-\	.
.	16ff\	.
.	16aa\JJ)	.
*clefF4	*	*
=50	=50	=50
CCnq/	.	.
*^	*	*
(8cn/L	[2.Cn\	16ffn\ (16cccn\LL	pp
.	.	16aa\	.
8A/	.	16ff\	.
.	.	16ccn\	.
8Gn/J	.	16ff\	.
.	.	16aa\JJ)	.
8Fn/L	.	16ff\ (16ccc\LL	.
.	.	16aa\	.
8G/	.	16ff\	.
.	.	16cc\	.
8A/J	.	16ff\	.
.	.	16aa\JJ)	.
=51	=51	=51	=51
8cn/L	2.C\]	16ffn\ 16cccn\LL	.
.	.	16aa\	.
8A/	.	16ff\	.
.	.	16ccn\	.
8Gn/J	.	16ff\	.
.	.	&(16aa\JJ&)	.
8Fn/L	.	16ff\ 16ccc\LL	.
.	.	16aa\	.
16G/L	.	16ff\	.
16A/	.	16cc\	.
16G/	.	16ff\	.
16A/JJ)	.	&(16aa\JJ&)	.
=52	=52	=52	=52
(8cn/L	4.Cn\ 4.Fn\ 4.A\	16ffn\ (16cccn\LL	.
.	.	16aa\	<
8A/	.	16ff\	.
.	.	16ccn\	.
8c/J	.	16ff\	.
.	.	16aa\JJ)	.
8dn/L	4.AA\ 4.F\ 4.A\	16ff\ (16dddn\LL	>
.	.	16aa\	.
8A/	.	16ff\	.
.	.	16ddn\	.
8d/J)	.	16ff\	.
.	.	16aa\JJ)	.
=53	=53	=53	=53
[4.cn/	[4.Cn\ [4.Fn\ (4.A\	16ffn\ (16cccn\LL	.
.	.	16aa\	.
.	.	16ff\	.
.	.	16ccn\	.
.	.	16ff\	.
.	.	16aa\JJ)	.
8c/]	8C\] 8F\]) 8A\	16ff\ (16ccc\LL	.
.	.	16aa\	.
8r	8r	16ff\	.
.	.	16cc\	.
8r	8r	16ff\	.
.	.	16aa\JJ)	.
*v	*v	*	*
*clefG2	*	*
=54	=54	=54
[2.cn^/ 2.fn^/ 2.a^/	16ffn\ (16cccn\LL	.
.	16aa\	.
.	16ff\	.
.	16ccn\	.
.	16ff\	.
.	16aa\JJ)	.
.	16ff\ (16ccc\LL	.
.	16aa\	.
.	16ff\	.
.	16cc\	.
.	16ff\	.
.	16aa\JJ)	.
=55	=55	=55
2.c/] 2.e/ 2.g#/	16ee\ (16cccn\LL	.
.	16gg#\	.
.	16ee\	.
.	16ccn\	.
.	16ee\	.
.	16gg#\JJ)	.
.	16ee\ (16ccc\LL	.
.	16gg#\	.
.	16ee\	.
.	16cc\	.
.	16ee\	.
.	16gg#\JJ)	.
*clefF4	*	*
=56	=56	=56
BBBq/	.	.
*^	*	*
(8B/L	[2.BB\	16ee\ (16bb\LL	.
.	.	16gg#\	.
8G#/	.	16ee\	.
.	.	16b\	.
8F#/J	.	16ee\	.
.	.	16gg#\JJ)	.
8E/L	.	16ee\ (16bb\LL	.
.	.	16gg#\	.
8F#/	.	16ee\	.
.	.	16b\	.
8G#/J	.	16ee\	.
.	.	16gg#\JJ)	.
=57	=57	=57	=57
8B/L	2.BB\]	16ee\ 16bb\LL	.
.	.	16gg#\	.
8G#/	.	16ee\	.
.	.	16b\	.
8F#/J	.	16ee\	.
.	.	&(16gg#\JJ&)	.
8E/L	.	16ee\ 16bb\LL	.
.	.	16gg#\	.
16F#/L	.	16ee\	.
16G#/	.	16b\	.
16F#/	.	16ee\	.
16G#/JJ)	.	&(16gg#\JJ&)	.
=58	=58	=58	=58
(8B/L	4.BB\ 4.E\ 4.G#\	16ee\ (16bb\LL	.
.	.	16gg#\	.
8G#/	.	16ee\	<
.	.	16b\	.
8B/J	.	16ee\	.
.	.	16gg#\JJ)	.
8c#/L	4.GG#\ 4.E\ 4.G#\	16ee\ (16ccc#\LL	>
.	.	16gg#\	.
8G#/	.	16ee\	.
.	.	16cc#\	.
8c#/J)	.	16ee\	.
.	.	16gg#\JJ)	.
=59	=59	=59	=59
[4.B/	[4.BB\ [4.E\ [4.G#\	16ee\ (16bb\LL	.
.	.	16gg#\	.
.	.	16ee\	.
.	.	16b\	.
.	.	16ee\	.
.	.	16gg#\JJ)	.
8B/]	8BB\] 8E\] 8G#\]	16ee\ (16bb\LL	.
.	.	16gg#\	.
8r	8r	16ee\	.
.	.	16b\	.
8r	8r	16ee\	.
.	.	16gg#\JJ)	.
=60	=60	=60	=60
(8c#/L	4.GG#\ 4.E\ 4.G#\	16ee^\ (16ccc#^\LL	.
.	.	16gg#\	.
8G#/	.	16ee\	>
.	.	16cc#\	.
8c#/J)	.	16ee\	.
.	.	16gg#\JJ)	.
4B/	4BB\ 4E\ 4G#\	16ee\ (16bb\LL	.
.	.	16gg#\	.
.	.	16ee\	.
.	.	16b\	.
8r	8r	16ee\	.
.	.	16gg#\JJ)	.
=61	=61	=61	=61
(8c#/L	4.GG#\ 4.E\ 4.G#\	16ee^\ (16ccc#^\LL	.
.	.	16gg#\	.
8G#/	.	16ee\	>
.	.	16cc#\	.
8c#/J)	.	16ee\	.
.	.	16gg#\JJ)	.
4B/	4BB\ 4E\ 4G#\	16ee\ (16bb\LL	.
.	.	16gg#\	.
.	.	16ee\	.
.	.	16b\	.
8r	8r	16ee\	.
.	.	16gg#\JJ)	.
=62	=62	=62	=62
(2.c#/	[4.GG#\ [4.E\ [4.G#\	16ee\ (16ccc#\LL	.
.	.	16gg#\	.
.	.	16ee\	.
.	.	16cc#\	.
.	.	16ee\	.
.	.	16gg#\JJ)	.
.	4GG#\] 4E\] 4G#\]	16ee\ (16ccc#\LL	.
.	.	16gg#\	.
.	.	16ee\	.
.	.	16cc#\	.
.	8r	16ee\	.
.	.	16gg#\JJ)	.
=63	=63	=63	=63
4.G#/	2.r	2.r	.
4.c#/)	.	.	.
*v	*v	*	*
=64	=64	=64
*	*^	*
4.BB\ 4.G#\ 4.B\	(8b/L	4.e\	pp
.	8g#/	.	.
.	8f#/J	.	.
4.C#\ 4.A\	8e/L	4.e\	.
.	8f#/	.	.
.	8g#/J	.	.
=65	=65	=65	=65
4.BB\ 4.G#\	8b/L	4.e\	.
.	8g#/	.	.
.	8f#/J	.	.
4.AA\ 4.E\ &(4.c#\&)	8e/L	4.e\	.
.	16f#/L	.	.
.	16g#/	.	.
.	16f#/	.	.
.	16g#/JJ)	.	.
=66	=66	=66	=66
*^	*	*	*
2.BB/ 2.E/	(4.GG#\	8b/L	2.e\	.
.	.	8g#/	.	.
.	.	8b/J	.	.
.	4.GGn\	8cc#/L	.	.
.	.	8a#/	.	.
.	.	8cc#/J	.	.
*v	*v	*	*	*
=67	=67	=67	=67
2.FF#/) 2.BB/ 2.An/	2.dd#/	4d#\ 4an\	.
.	.	8r	.
.	.	4r	.
.	.	8r	.
=68	=68	=68	=68
8EE/ 8BB/ 8G#/	4bb/	4ee^\	p
*clefG2	*	*	*
(8B/ 8f#/L	.	.	.
8e/) 8g#/J	8r	8r	.
(8e^/ 8g#^/L	4bb/	4ee^\	.
8B/ 8f#/	.	.	.
8e'/) 8g#'/J	8r	8r	.
=69	=69	=69	=69
(8e^/ 8g#^/L	4bb/	4ee^\	.
8B/ 8f#/	.	.	.
8e'/) 8g#'/J	8r	8r	.
(8e^/ 8g#^/L	4bb/	4ee^\	.
8B/ 8f#/	.	.	.
8e/) 8g#/J	8r	8r	.
*clefF4	*	*	*
=70	=70	=70	=70
*^	*	*	*
2.BB/ 2.E/	(4.GG#\	8b/L	2.e\	.
.	.	8g#/	.	.
.	.	8b/J	.	.
.	4.GGn\	8cc#/L	.	.
.	.	8a#/	.	.
.	.	8cc#/J	.	.
*v	*v	*	*	*
=71	=71	=71	=71
2.FF#/) 2.BB/ 2.An/	2.dd#/	4d#\ 4an\	.
.	.	8r	.
.	.	4r	.
.	.	8r	.
=72	=72	=72	=72
8EE/ 8BB/ 8G#/	4bb/	4ee^\	.
*clefG2	*	*	*
(8B/ 8f#/L	.	.	.
8e'/) 8g#'/J	8r	8r	.
(8e^/ 8g#^/L	4bb/	4ee^\	.
8B/ 8f#/	.	.	.
8e'/) 8g#'/J	8r	8r	.
*clefF4	*	*	*
=73	=73	=73	=73
2.r	2.dd#/	4d#\ 4an\	.
.	.	8r	.
.	.	4r	.
.	.	8r	.
=74	=74	=74	=74
8EE/ 8BB/ 8G#/	4bb/	4ee^\	.
*clefG2	*	*	*
(8B/ 8f#/L	.	.	.
8e'/) 8g#'/J	8r	8r	.
*clefF4	*	*	*
4FF#/ 4BB/ 4A/	4.dd#/	4d#\ 4an\	>
8r	.	8r	.
=75	=75	=75	=75
8EE/ 8BB/ 8G#/	4bb/	4ee^\	.
*clefG2	*	*	*
(8B/ 8f#/L	.	.	.
8e'/) 8g#'/J	8r	8r	.
*clefF4	*	*	*
4FF#/ 4BB/ 4A/	4.dd#/	4d#\ 4an\	.
8r	.	8r	.
*	*v	*v	*
=76	=76	=76
2.r	2.r	.
=77	=77	=77
*^	*	*
2.F#^/ 2.A^/ 2.B^/ 2.d#^/	8BBB\ 8BB\	2.r	.
.	8r	.	.
.	8r	.	.
.	4r	.	.
.	8r	.	.
=78	=78	=78	=78
4.F#^/ 4.A^/ 4.B^/ 4.d#^/	8BBB\ 8BB\	2.r	.
.	8r	.	.
.	8r	.	.
4.F#^/ 4.A^/ 4.B^/ 4.e^/	8BBB\ 8BB\	.	.
.	8r	.	.
.	8r	.	.
=79	=79	=79	=79
4.BB/	2.EE\ (2.G#\	(8bb\L	<
.	.	8gg#\	.
.	.	8ff#\J	.
4.C#/	.	8ee\L	.
.	.	8ff#\	.
.	.	8gg#\J)	.
*v	*v	*	*
=80	=80	=80
&(4.BB/&))	8bb\L	.
.	8gg#\	.
.	8ff#\J	.
4.C#/	8ee\L	.
.	16ff#\L	.
.	16gg#\	.
.	16ff#\	.
.	16gg#\JJ	.
=81	=81	=81
8r	4.B/ 4.e/ 4.g#/ 4.b/	<
(8G#\L	.	.
8F#\J	.	.
8E\L	4.c#/ 4.e/ 4.g#/ 4.cc#/	>
8F#\	.	.
8G#\J)	.	.
=82	=82	=82
8r	4.B/ 4.e/ 4.g#/ 4.b/	.
(8G#\L	.	.
8F#\J	.	.
8E\L	4.c#/ 4.e/ 4.g#/ 4.cc#/	>
16F#\L	.	.
16G#\	.	.
16F#\	.	.
16G#\JJ)	.	.
=83	=83	=83
2.BB\ 2.G#\ 2.B\ 2.e\	2.b\ 2.ee\ 2.gg#\ 2.bb\	pp
=84	=84	=84
2.GG#\ 2.E\ 2.G#\ 2.c#\	2.cc#\ 2.ee\ 2.gg#\ 2.ccc#\	<
=85	=85	=85
*^	*	*
2.EE/ [2.BB/ [2.E/ [2.G#/ [2.B/ [2.e/	4r	[2.ee^\ [2.gg#^\ [2.bb^\ [2.eee^\	>
.	8r	.	.
.	8.EEE\L	.	.
.	8.EE\J	.	.
=86	=86	=86	=86
2.BB/_ 2.E/_ 2.G#/_ 2.B/_ 2.e/_	4.EEE\	2.ee\_ 2.gg#\_ 2.bb\_ 2.eee\_	.
.	4.EE\	.	.
=87	=87	=87	=87
4BB/] 4E/] 4G#/] 4B/] 4e/]	4EEE\	4ee\] 4gg#\] 4bb\] 4eee\]	.
8r	8r	8r	.
4r	4r	4r	.
8r	8r	8r	.
*v	*v	*	*
==	==	==
*-	*-	*-
!!!ENC: Craig Stuart Sapp
!!!END: 2008/03/03/
